X: 38603
T: Stonehenge
R: reel
M: 4/4
K: Eminor
DE|:F2 FG A2 A2|d^cde d2 AB|c2cdcB A2|cBcd e2DE|
F2 FG A2 A2|d^cde d2 AB|cBcd cAGE|1 D2 DC D2 DE:|2 ~D2 D4 (3EFG||
A2 A2 G2 G2|E2 D2 C3 B,|CB,CD EDCE|DEDC D2 (3EFG|
A2 A2 G2 G2|E2 D2 C3 B,|CB,CD EDCE|1 DEDC D2 (3EFG:|2 DEDC D4||

